X:398
T: Xia sichuan
N: C1433
O: China,Ningxia, Xiji
S: I, 202]
R: Xiaodiao]
M: 2/4
L: 1/16
K: F
c2f2dfdc | BdcBG4 | c2f2dfdc | BdcBG4 |
f2fdf2d2 | cfdcB2AG | F2C4c2 | B3AGFED | C8

@@@ Tune index: 6399
